X: 238
P: Longways for as many as will
M: C|
L: 1/8
K: D
d2de fefg | f3g a2a2 | bagf e2a2 | f3e d2f2 |\
f2 e4 e2 | e2 d4 d2 | d2(cB) B3A | A6 |]
a2 |\
e3d e2f2 | g6 a2 | b2(ag) fgfe | ^d6 B2 |\
e3f f3e | e6 e2 | a2ab agfe | f6 d2 |
g2ga gfed | c6 c2 | d2de dcBA | B2ga gfed | c2ab agfe | d2g2 g3a | f3e e3d | d6 |]

